X: 1
T: The Lougheil
R: march
M: 4/4
L: 1/8
K: Gdor
|:fe|d2 G2 d2 G2|d>^cde fd=cA|F2 F2 A2 GF|A2 c2 c2 fe|
d2 G2 d2 G2|d>^cde f/e/d=cA|G2 G2 A2 GF|f2 d2 d2:|
|:f/e/d|c>Acd f2 f/e/d|g>age fedc|f2 d2 edcd|f2 d2 d2 ef|
ga/g/eg f2 df|edce dcBA|G2 G2 A2 GF|f2 d2- d2:|

